src/icons/svg/visits.svg

<svg class="icon" viewBox="0 0 1024 1024" xmlns="http://www.w3.org/2000/svg" width="200" height="200"><defs><style/></defs><path d="M320 128C320 57.344 262.656 0 192 0S64 57.344 64 128s57.344 128 128 128 128-57.344 128-128zm224 64c52.992 0 96-43.008 96-96S596.992 0 544 0s-96 43.008-96 96 43.008 96 96 96zM864 64c-52.992 0-96 43.008-96 96s43.008 96 96 96 96-43.008 96-96-43.008-96-96-96zM537.088 257.216c-77.056-1.216-164.736 10.688-234.944 72.896-70.272 62.208-61.504 217.6 37.824 259.392 99.392 41.728 121.28 113.92 94.656 203.776C408 883.136 453.44 960 567.04 960 762.88 960 832 776.512 832 570.944c0-223.552-87.872-310.592-294.912-313.728z"/></svg>

<?xml version="1.0" standalone="no"?><!DOCTYPE svg PUBLIC "-//W3C//DTD SVG 1.1//EN" "http://www.w3.org/Graphics/SVG/1.1/DTD/svg11.dtd"><svg t="1544682770180" class="icon" style="" viewBox="0 0 1024 1024" version="1.1" xmlns="http://www.w3.org/2000/svg" p-id="4347" xmlns:xlink="http://www.w3.org/1999/xlink" width="200" height="200"><defs><style type="text/css"></style></defs><path d="M320 128c0-70.656-57.344-128-128-128S64 57.344 64 128s57.344 128 128 128S320 198.656 320 128zM544 192C596.992 192 640 148.992 640 96S596.992 0 544 0 448 43.008 448 96 491.008 192 544 192zM864 64C811.008 64 768 107.008 768 160S811.008 256 864 256 960 212.992 960 160 916.992 64 864 64zM537.088 257.216C460.032 256 372.352 267.904 302.144 330.112 231.872 392.32 240.64 547.712 339.968 589.504c99.392 41.728 121.28 113.92 94.656 203.776C408 883.136 453.44 960 567.04 960 762.88 960 832 776.512 832 570.944 832 347.392 744.128 260.352 537.088 257.216z" p-id="4348"></path></svg>
